src/assets/images/features-icon-2.svg

<svg width="50" height="56" viewBox="0 0 50 56" fill="none" xmlns="http://www.w3.org/2000/svg">
<path d="M1.15216 16.041C1.15216 17.8868 1.15216 19.4081 1.15216 20.9406C1.15216 22.8646 1.78978 24.5985 3.35586 25.706C5.12329 26.9588 6.96903 28.2229 8.97137 29.0171C16.6452 32.0821 24.621 32.5408 32.7087 31.1313C36.9371 30.393 41.0872 29.3527 44.6668 26.8022C46.3447 25.6053 47.8213 24.1958 48.0227 22.048C48.2017 20.1352 48.0562 18.2 48.0562 16.1417C41.0201 21.4328 32.9883 22.887 24.6545 22.8199C16.3543 22.7528 8.18833 21.802 1.15216 16.041Z" fill="#3B45FF"/>
<path d="M1.15221 27.5293C1.15221 29.0394 1.20814 30.2476 1.14102 31.4445C0.973225 34.1628 2.06948 36.2434 4.27318 37.7424C5.19045 38.3688 6.14129 38.9729 7.14805 39.4539C11.7009 41.624 16.5445 42.6643 21.556 42.9552C28.2901 43.3467 34.946 42.7203 41.1208 39.9796C48.5373 36.6909 48.5485 34.1963 47.9444 27.8761C46.5685 28.7262 45.215 29.7106 43.7384 30.4489C37.3398 33.6258 30.4155 34.1851 23.4577 33.9838C15.6161 33.7489 7.80804 33.0889 1.15221 27.5293Z" fill="#3B45FF"/>
<path d="M1.15217 38.7383C1.15217 40.4274 1.15217 41.8257 1.15217 43.224C1.14098 45.2599 1.84572 47.0385 3.50129 48.2019C5.2016 49.3988 6.98022 50.5957 8.89308 51.3676C14.9896 53.8286 21.3993 54.6452 27.9321 54.1194C33.2344 53.6943 38.492 52.7882 43.1902 50.0924C48.403 47.1056 48.5373 44.9467 47.9332 39.0851C46.602 39.924 45.2932 40.8972 43.8614 41.6132C37.4181 44.8348 30.449 45.3941 23.4464 45.1704C15.616 44.9243 7.79682 44.3314 1.16336 38.7383H1.15217Z" fill="#3B45FF"/>
<path d="M1.15216 16.041C8.18833 21.802 16.3543 22.7416 24.6545 22.8199C32.9995 22.887 41.0201 21.4328 48.0562 16.1417C48.0562 18.2 48.2017 20.1464 48.0227 22.048C47.8213 24.1958 46.3447 25.6053 44.6668 26.8022C41.076 29.3527 36.9371 30.393 32.7087 31.1313C24.621 32.5408 16.6452 32.0933 8.97137 29.0171C6.98022 28.2229 5.12329 26.9588 3.35586 25.706C1.78978 24.5985 1.16335 22.8646 1.15216 20.9406C1.15216 19.4081 1.15216 17.8756 1.15216 16.041Z" fill="#1BC07D"/>
<path d="M1.15216 27.5293C7.808 33.0889 15.616 33.7489 23.4576 33.9838C30.4267 34.1963 37.3398 33.6258 43.7383 30.4489C45.2149 29.7106 46.5685 28.7262 47.9444 27.8761C48.5485 34.1963 48.5373 36.6797 41.1208 39.9796C34.9459 42.7203 28.2901 43.3467 21.5559 42.9552C16.5445 42.6643 11.7008 41.624 7.14801 39.4539C6.14124 38.9729 5.2016 38.3688 4.27314 37.7424C2.05825 36.2322 0.973182 34.1628 1.14098 31.4445C1.21928 30.2476 1.15216 29.0394 1.15216 27.5293Z" fill="#0197D8"/>
<path d="M1.15219 38.7383C7.78565 44.3202 15.6049 44.9243 23.4353 45.1704C30.4491 45.3829 37.4181 44.8236 43.8502 41.6132C45.2821 40.8972 46.5909 39.924 47.922 39.0851C48.5149 44.9467 48.3807 47.1056 43.1791 50.0924C38.4808 52.7882 33.2233 53.6943 27.921 54.1194C21.3882 54.6452 14.9784 53.8286 8.88191 51.3676C6.96905 50.5957 5.20162 49.3988 3.49012 48.2019C1.83455 47.0385 1.12981 45.2599 1.141 43.224C1.141 41.8257 1.141 40.4386 1.141 38.7383H1.15219Z" fill="#FF3D72"/>
<path d="M47.7207 10.5156C47.7207 16.1423 37.351 20.7063 24.5651 20.7063C11.7792 20.7063 1.40948 16.1423 1.40948 10.5156C1.40948 4.88892 12.0924 0.996094 24.8783 0.996094C37.6642 0.996094 47.7207 4.88892 47.7207 10.5156Z" fill="#FFC859"/>
</svg>

<svg xmlns="http://www.w3.org/2000/svg" width="50" height="56" fill="none"><path fill="#3B45FF" d="M1.152 16.041v4.9c0 1.924.638 3.658 2.204 4.765 1.767 1.253 3.613 2.517 5.615 3.311 7.674 3.065 15.65 3.524 23.738 2.114 4.228-.738 8.378-1.778 11.958-4.329 1.678-1.197 3.154-2.606 3.356-4.754.179-1.913.033-3.848.033-5.906-7.036 5.29-15.068 6.745-23.401 6.678-8.3-.067-16.467-1.018-23.503-6.779Z"/><path fill="#3B45FF" d="M1.152 27.53c0 1.51.056 2.718-.011 3.915-.168 2.718.928 4.798 3.132 6.297.917.627 1.868 1.23 2.875 1.712 4.553 2.17 9.396 3.21 14.408 3.501 6.734.392 13.39-.235 19.565-2.975 7.416-3.29 7.427-5.784 6.823-12.104-1.376.85-2.729 1.835-4.206 2.573-6.398 3.177-13.322 3.736-20.28 3.535-7.842-.235-15.65-.895-22.306-6.455Z"/><path fill="#3B45FF" d="M1.152 38.738v4.486c-.011 2.036.694 3.815 2.35 4.978 1.7 1.197 3.478 2.394 5.391 3.166 6.097 2.46 12.506 3.277 19.04 2.751 5.301-.425 10.559-1.33 15.257-4.027 5.213-2.986 5.347-5.145 4.743-11.007-1.331.839-2.64 1.812-4.072 2.528-6.443 3.222-13.412 3.781-20.415 3.557-7.83-.246-15.65-.839-22.283-6.432h-.01Z"/><path fill="#1BC07D" d="M1.152 16.041c7.036 5.761 15.202 6.7 23.503 6.779 8.344.067 16.365-1.387 23.401-6.678 0 2.058.146 4.004-.033 5.906-.202 2.148-1.678 3.557-3.356 4.754-3.591 2.55-7.73 3.591-11.958 4.33-8.088 1.409-16.064.961-23.738-2.115-1.99-.794-3.848-2.058-5.615-3.311-1.566-1.107-2.193-2.841-2.204-4.765v-4.9Z"/><path fill="#0197D8" d="M1.152 27.53c6.656 5.559 14.464 6.219 22.306 6.454 6.969.212 13.882-.358 20.28-3.535 1.477-.738 2.83-1.723 4.206-2.573.604 6.32.593 8.804-6.823 12.104-6.175 2.74-12.83 3.367-19.565 2.975-5.012-.29-9.855-1.331-14.408-3.501-1.007-.481-1.946-1.085-2.875-1.712-2.215-1.51-3.3-3.58-3.132-6.297.078-1.197.011-2.406.011-3.916Z"/><path fill="#FF3D72" d="M1.152 38.738c6.634 5.582 14.453 6.186 22.283 6.432 7.014.213 13.983-.346 20.415-3.557 1.432-.716 2.74-1.689 4.072-2.528.593 5.862.459 8.02-4.743 11.007-4.698 2.696-9.956 3.602-15.258 4.027-6.533.526-12.943-.29-19.04-2.751-1.912-.772-3.68-1.97-5.39-3.166-1.656-1.163-2.361-2.942-2.35-4.978v-4.486h.011Z"/><path fill="#FFC859" d="M47.72 10.516c0 5.626-10.369 10.19-23.155 10.19-12.786 0-23.156-4.564-23.156-10.19 0-5.627 10.683-9.52 23.47-9.52 12.785 0 22.842 3.893 22.842 9.52Z"/></svg>
